X: 409
T: Turlough the Brave
N:"Animated"
N:Irish title: toir.deal.ba.c treun
B:O'Neill's 409
Z:Transcribed by henrik.norbeck@mailbox.swipnet.se
M:9/8
L:1/8
K:D
A | (F/G/A>G) G2 B AFD | FAF G2 A B2 E | (F/G/A>G) G2 B AFD | EFE EFA B2 :|
|: d | gag fdB BAF | gfe fdB B2A | gag fdB AFd | EFE EFA B2 :|
|: c | dFd FdB AFD | ded def g2e | ded fdB AFD | EFE EFA B2 :|


